build/flags/NetherlandsAntillesCountry.svg

<svg xmlns="http://www.w3.org/2000/svg" fill="none" viewBox="0 0 28 28" focusable="false"><defs><filter id="Netherlands_Antilles_Country_svg__a"><feColorMatrix values="0 0 0 0 1 0 0 0 0 1 0 0 0 0 1 0 0 0 1 0"/></filter></defs><mask id="Netherlands_Antilles_Country_svg__b" width="28" height="20" x="0" y="4" maskUnits="userSpaceOnUse"><g filter="url(#Netherlands_Antilles_Country_svg__a)"><rect width="28" height="20" y="4" fill="#FFF" rx="3"/><rect width="27.5" height="19.5" x=".25" y="4.25" stroke="#F5F5F5" stroke-width=".5" rx="2.75"/></g></mask><path fill="none" d="M0 0H28V28H0z"/><rect width="28" height="20" y="4" fill="#FFF" rx="3"/><rect width="27.5" height="19.5" x=".25" y="4.25" stroke="#D6D8DD" stroke-width=".5" rx="2.75"/><g mask="url(#Netherlands_Antilles_Country_svg__b)"><path fill="#D6182D" d="M10.667 4H17.334V24H10.667z"/><path d="M10.667 4H17.334V24H10.667z"/><path fill="#1425A2" d="M0 10.667H28V17.334H0z"/><path d="M0 10.667H28V17.334H0z"/><path fill="#FFF" fill-rule="evenodd" d="M11.3334 15.6667L10.8619 15.8048L11 15.3334L10.8619 14.8619L11.3334 15L11.8048 14.8619L11.6667 15.3334L11.8048 15.8048L11.3334 15.6667Z"/><path d="M10.8619 15.8048L11 15.3334L10.8619 14.8619L11.3334 15L11.8048 14.8619L11.6667 15.3334L11.8048 15.8048L11.3334 15.6667L10.8619 15.8048Z"/><path fill="#FFF" fill-rule="evenodd" d="M16.6667 15.6667L16.1953 15.8048L16.3333 15.3334L16.1953 14.8619L16.6667 15L17.1381 14.8619L17 15.3334L17.1381 15.8048L16.6667 15.6667Z"/><path d="M16.1953 15.8048L16.3333 15.3334L16.1953 14.8619L16.6667 15L17.1381 14.8619L17 15.3334L17.1381 15.8048L16.6667 15.6667L16.1953 15.8048Z"/><path fill="#FFF" fill-rule="evenodd" d="M8.66667 14.3333L8.19526 14.4714L8.33333 14L8.19526 13.5286L8.66667 13.6666L9.13807 13.5286L9 14L9.13807 14.4714L8.66667 14.3333Z"/><path d="M8.19526 14.4714L8.33333 14L8.19526 13.5286L8.66667 13.6666L9.13807 13.5286L9 14L9.13807 14.4714L8.66667 14.3333L8.19526 14.4714Z"/><path fill="#FFF" fill-rule="evenodd" d="M19.3334 14.3333L18.8619 14.4714L19 14L18.8619 13.5286L19.3334 13.6666L19.8048 13.5286L19.6667 14L19.8048 14.4714L19.3334 14.3333Z"/><path d="M18.8619 14.4714L19 14L18.8619 13.5286L19.3334 13.6666L19.8048 13.5286L19.6667 14L19.8048 14.4714L19.3334 14.3333L18.8619 14.4714Z"/><path fill="#FFF" fill-rule="evenodd" d="M14 13L13.5286 13.1381L13.6666 12.6667L13.5286 12.1953L14 12.3333L14.4714 12.1953L14.3333 12.6667L14.4714 13.1381L14 13Z"/><path d="M13.5286 13.1381L13.6666 12.6667L13.5286 12.1953L14 12.3333L14.4714 12.1953L14.3333 12.6667L14.4714 13.1381L14 13L13.5286 13.1381Z"/></g></svg>

<svg xmlns="http://www.w3.org/2000/svg" fill="none" viewBox="0 0 28 28" focusable="false"><path fill="none" d="M0 0h28v28H0z"/><rect width="28" height="20" y="4" fill="#FFF" rx="3"/><rect width="27.5" height="19.5" x=".25" y="4.25" stroke="#D6D8DD" stroke-width=".5" rx="3"/><mask id="Netherlands_Antilles_Country_svg__a" width="28" height="20" x="0" y="4" mask-type="alpha" maskUnits="userSpaceOnUse"><rect width="28" height="20" y="4" fill="#FFF" rx="3"/><rect width="27.5" height="19.5" x=".25" y="4.25" stroke="#F5F5F5" stroke-width=".5" rx="3"/></mask><g mask="url(#Netherlands_Antilles_Country_svg__a)"><path fill="#D6182D" d="M10.667 4h6.667v20h-6.667z"/><path d="M10.667 4h6.667v20h-6.667z"/></g><g mask="url(#Netherlands_Antilles_Country_svg__a)"><path fill="#1425A2" d="M0 10.667h28v6.667H0z"/><path d="M0 10.667h28v6.667H0z"/></g><g mask="url(#Netherlands_Antilles_Country_svg__a)"><path fill="#FFF" fill-rule="evenodd" d="m11.33 15.66-.47.14.14-.47-.14-.47.47.14.47-.14-.14.47.14.47z"/><path d="m10.86 15.8.14-.47-.14-.47.47.14.47-.14-.14.47.14.47-.47-.14z"/></g><g mask="url(#Netherlands_Antilles_Country_svg__a)"><path fill="#FFF" fill-rule="evenodd" d="m16.66 15.66-.47.14.14-.47-.14-.47.47.14.47-.14-.13.47.13.47z"/><path d="m16.19 15.8.14-.47-.14-.47.47.14.47-.14-.13.47.13.47-.47-.14z"/></g><g mask="url(#Netherlands_Antilles_Country_svg__a)"><path fill="#FFF" fill-rule="evenodd" d="m8.66 14.33-.47.14.14-.47-.14-.48.47.14.47-.14L9 14l.13.47z"/><path d="m8.19 14.47.14-.47-.14-.48.47.14.47-.14L9 14l.13.47-.47-.14z"/></g><g mask="url(#Netherlands_Antilles_Country_svg__a)"><path fill="#FFF" fill-rule="evenodd" d="m19.33 14.33-.47.14L19 14l-.14-.48.47.14.47-.14-.14.48.14.47z"/><path d="M18.86 14.47 19 14l-.14-.48.47.14.47-.14-.14.48.14.47-.47-.14z"/></g><g mask="url(#Netherlands_Antilles_Country_svg__a)"><path fill="#FFF" fill-rule="evenodd" d="m14 13-.48.13.14-.47-.14-.47.48.14.47-.14-.14.47.14.47z"/><path d="m13.52 13.13.14-.47-.14-.47.48.14.47-.14-.14.47.14.47L14 13z"/></g></svg>
